; G-Code generated by Simplify3D(R) Version 4.1.2
; Feb 24, 2020 at 9:43:02 PM
; Settings Summary
;   processName,PLA_300um_x_2_layers
;   applyToModels,Tag_Temp.STL
;   profileName,Folger Tech FT-5 (modified)
;   profileVersion,2016-10-28 08:00:00
;   baseProfile,
;   printMaterial,PLA
;   printQuality,Medium
;   printExtruders,
;   extruderName,Primary Extruder
;   extruderToolheadNumber,0
;   extruderDiameter,0.4
;   extruderAutoWidth,1
;   extruderWidth,0.48
;   extrusionMultiplier,0.9
;   extruderUseRetract,1
;   extruderRetractionDistance,0.5
;   extruderExtraRestartDistance,0
;   extruderRetractionZLift,0.3
;   extruderRetractionSpeed,1800
;   extruderUseCoasting,0
;   extruderCoastingDistance,0.2
;   extruderUseWipe,0
;   extruderWipeDistance,5
;   primaryExtruder,0
;   layerHeight,0.3
;   topSolidLayers,4
;   bottomSolidLayers,3
;   perimeterOutlines,2
;   printPerimetersInsideOut,1
;   startPointOption,2
;   startPointOriginX,0
;   startPointOriginY,0
;   sequentialIslands,0
;   spiralVaseMode,0
;   firstLayerHeightPercentage,90
;   firstLayerWidthPercentage,100
;   firstLayerUnderspeed,0.2
;   useRaft,0
;   raftExtruder,0
;   raftTopLayers,3
;   raftBaseLayers,2
;   raftOffset,3
;   raftSeparationDistance,0.19
;   raftTopInfill,100
;   aboveRaftSpeedMultiplier,0.3
;   useSkirt,1
;   skirtExtruder,0
;   skirtLayers,1
;   skirtOutlines,3
;   skirtOffset,4
;   usePrimePillar,0
;   primePillarExtruder,999
;   primePillarWidth,12
;   primePillarLocation,7
;   primePillarSpeedMultiplier,1
;   useOozeShield,0
;   oozeShieldExtruder,999
;   oozeShieldOffset,2
;   oozeShieldOutlines,1
;   oozeShieldSidewallShape,1
;   oozeShieldSidewallAngle,30
;   oozeShieldSpeedMultiplier,1
;   infillExtruder,0
;   internalInfillPattern,Rectilinear
;   externalInfillPattern,Rectilinear
;   infillPercentage,100
;   outlineOverlapPercentage,50
;   infillExtrusionWidthPercentage,100
;   minInfillLength,5
;   infillLayerInterval,1
;   internalInfillAngles,45,-45
;   overlapInternalInfillAngles,0
;   externalInfillAngles,45,-45
;   generateSupport,1
;   supportExtruder,0
;   supportInfillPercentage,30
;   supportExtraInflation,0
;   supportBaseLayers,1
;   denseSupportExtruder,0
;   denseSupportLayers,0
;   denseSupportInfillPercentage,70
;   supportLayerInterval,1
;   supportHorizontalPartOffset,0.3
;   supportUpperSeparationLayers,1
;   supportLowerSeparationLayers,1
;   supportType,0
;   supportGridSpacing,4
;   maxOverhangAngle,45
;   supportAngles,0
;   temperatureName,Primary Extruder,Heated Bed
;   temperatureNumber,0,0
;   temperatureSetpointCount,1,1
;   temperatureSetpointLayers,1,1
;   temperatureSetpointTemperatures,220,60
;   temperatureStabilizeAtStartup,1,1
;   temperatureHeatedBed,0,1
;   fanLayers,1,2
;   fanSpeeds,0,100
;   blipFanToFullPower,0
;   adjustSpeedForCooling,0
;   minSpeedLayerTime,5
;   minCoolingSpeedSlowdown,15
;   increaseFanForCooling,0
;   minFanLayerTime,45
;   maxCoolingFanSpeed,100
;   increaseFanForBridging,0
;   bridgingFanSpeed,100
;   use5D,1
;   relativeEdistances,0
;   allowEaxisZeroing,1
;   independentExtruderAxes,0
;   includeM10123,0
;   stickySupport,1
;   applyToolheadOffsets,0
;   gcodeXoffset,0
;   gcodeYoffset,0
;   gcodeZoffset,0
;   overrideMachineDefinition,1
;   machineTypeOverride,0
;   strokeXoverride,300
;   strokeYoverride,300
;   strokeZoverride,400
;   originOffsetXoverride,0
;   originOffsetYoverride,0
;   originOffsetZoverride,0
;   homeXdirOverride,-1
;   homeYdirOverride,-1
;   homeZdirOverride,-1
;   flipXoverride,1
;   flipYoverride,-1
;   flipZoverride,1
;   toolheadOffsets,0,0|0,0|0,0|0,0|0,0|0,0
;   overrideFirmwareConfiguration,1
;   firmwareTypeOverride,RepRap (Marlin/Repetier/Sprinter)
;   GPXconfigOverride,r2
;   baudRateOverride,250000
;   overridePrinterModels,1
;   printerModelsOverride
;   startingGcode,G32,G1 X0 Y5 Z0.2 F3000 ; get ready to prime,G92 E0 ; reset extrusion distance,G1 X250 E20 F600 ; prime nozzle
;   layerChangeGcode,
;   retractionGcode,
;   toolChangeGcode,
;   endingGcode,M104 S0 ; turn off extruder,M140 S0 ; turn off bed,G28 X Y ; home x and y axes,M84 ; disable motors
;   exportFileFormat,gcode
;   celebration,0
;   celebrationSong,Random Song
;   postProcessing,
;   defaultSpeed,3900
;   outlineUnderspeed,0.75
;   solidInfillUnderspeed,1
;   supportUnderspeed,1
;   rapidXYspeed,4800
;   rapidZspeed,1002
;   minBridgingArea,50
;   bridgingExtraInflation,0
;   bridgingExtrusionMultiplier,1
;   bridgingSpeedMultiplier,1
;   useFixedBridgingAngle,0
;   fixedBridgingAngle,0
;   applyBridgingToPerimeters,0
;   filamentDiameters,1.75|1.75|1.75|1.75|1.75|1.75
;   filamentPricesPerKg,46|46|46|46|46|46
;   filamentDensities,1.25|1.25|1.25|1.25|1.25|1.25
;   useMinPrintHeight,0
;   minPrintHeight,0
;   useMaxPrintHeight,1
;   maxPrintHeight,0.6
;   useDiaphragm,0
;   diaphragmLayerInterval,20
;   robustSlicing,1
;   mergeAllIntoSolid,0
;   onlyRetractWhenCrossingOutline,1
;   retractBetweenLayers,0
;   useRetractionMinTravel,0
;   retractionMinTravel,3
;   retractWhileWiping,0
;   onlyWipeOutlines,1
;   avoidCrossingOutline,0
;   maxMovementDetourFactor,3
;   toolChangeRetractionDistance,12
;   toolChangeExtraRestartDistance,-0.5
;   toolChangeRetractionSpeed,600
;   externalThinWallType,0
;   internalThinWallType,2
;   thinWallAllowedOverlapPercentage,10
;   singleExtrusionMinLength,1
;   singleExtrusionMinPrintingWidthPercentage,50
;   singleExtrusionMaxPrintingWidthPercentage,200
;   singleExtrusionEndpointExtension,0.2
;   horizontalSizeCompensation,0
G90
M82
M106 S0
M140 S60
M190 S60
M104 S220 T0
M109 S220 T0
G32
G1 X0 Y5 Z0.2 F3000 ; get ready to prime
G92 E0 ; reset extrusion distance
G1 X250 E20 F600 ; prime nozzle
; process PLA_300um_x_2_layers
; layer 1, Z = 0.270
T0
G92 E0.0000
G1 E-0.5000 F1800
; feature skirt
; tool H0.270 W0.480
G1 Z0.300 F1002
G1 X136.734 Y137.084 F4800
G1 Z0.270 F1002
G1 E0.0000 F1800
G92 E0.0000
G1 X137.096 Y136.722 E0.0248 F780
G1 X137.793 Y136.151 E0.0685
G1 X138.214 Y135.870 E0.0931
G1 X138.963 Y135.469 E0.1343
G1 X139.353 Y135.300 E0.1549
G1 X140.016 Y135.075 E0.1888
G1 X140.436 Y134.970 E0.2098
G1 X141.244 Y134.838 E0.2495
G1 X141.663 Y134.804 E0.2699
G1 X162.153 Y134.800 E1.2635
G1 X165.200 Y137.846 E1.4725
G1 X165.200 Y152.155 E2.1664
G1 X162.150 Y155.202 E2.3754
G1 X141.394 Y155.183 E3.3820
G1 X140.719 Y155.093 E3.4150
G1 X139.639 Y154.803 E3.4692
G1 X139.160 Y154.623 E3.4941
G1 X138.469 Y154.281 E3.5314
G1 X138.038 Y154.014 E3.5560
G1 X137.193 Y153.367 E3.6076
G1 X136.765 Y152.953 E3.6365
G1 X136.183 Y152.246 E3.6809
G1 X135.936 Y151.890 E3.7019
G1 X135.614 Y151.329 E3.7333
G1 X135.466 Y151.028 E3.7496
G1 X135.223 Y150.443 E3.7803
G1 X135.093 Y150.038 E3.8009
G1 X134.904 Y149.231 E3.8411
G1 X134.841 Y148.806 E3.8619
G1 X134.805 Y148.251 E3.8889
G1 X134.800 Y148.081 E3.8971
G1 X134.804 Y141.653 E4.2089
G1 X134.839 Y141.230 E4.2294
G1 X134.979 Y140.383 E4.2711
G1 X135.110 Y139.893 E4.2957
G1 X135.408 Y139.099 E4.3368
G1 X135.589 Y138.716 E4.3573
G1 X135.937 Y138.109 E4.3913
G1 X136.184 Y137.752 E4.4123
G1 X136.734 Y137.084 E4.4543
G92 E0.0000
G1 E-0.5000 F1800
G1 Z0.570 F1002
G1 X137.089 Y137.407 F4800
G1 Z0.270 F1002
G1 E0.0000 F1800
G92 E0.0000
G1 X137.418 Y137.079 E0.0225 F780
G1 X138.079 Y136.537 E0.0640
G1 X138.462 Y136.282 E0.0862
G1 X139.173 Y135.902 E0.1253
G1 X139.526 Y135.748 E0.1441
G1 X140.152 Y135.536 E0.1761
G1 X140.533 Y135.440 E0.1951
G1 X141.302 Y135.315 E0.2329
G1 X141.682 Y135.284 E0.2514
G1 X161.954 Y135.280 E1.2345
G1 X164.720 Y138.045 E1.4241
G1 X164.720 Y151.956 E2.0988
G1 X161.952 Y154.722 E2.2885
G1 X141.425 Y154.703 E3.2839
G1 X140.813 Y154.622 E3.3139
G1 X139.786 Y154.346 E3.3654
G1 X139.351 Y154.182 E3.3880
G1 X138.702 Y153.861 E3.4231
G1 X138.312 Y153.619 E3.4454
G1 X137.507 Y153.002 E3.4945
G1 X137.118 Y152.627 E3.5208
G1 X136.566 Y151.956 E3.5629
G1 X136.342 Y151.633 E3.5819
G1 X136.038 Y151.103 E3.6115
G1 X135.903 Y150.830 E3.6263
G1 X135.674 Y150.277 E3.6553
G1 X135.556 Y149.910 E3.6740
G1 X135.376 Y149.141 E3.7123
G1 X135.319 Y148.756 E3.7312
G1 X135.285 Y148.227 E3.7569
G1 X135.280 Y148.074 E3.7644
G1 X135.284 Y141.673 E4.0747
G1 X135.316 Y141.289 E4.0934
G1 X135.449 Y140.485 E4.1330
G1 X135.568 Y140.040 E4.1553
G1 X135.851 Y139.285 E4.1944
G1 X136.015 Y138.938 E4.2130
G1 X136.343 Y138.366 E4.2450
G1 X136.567 Y138.042 E4.2641
G1 X137.089 Y137.407 E4.3040
G92 E0.0000
G1 E-0.5000 F1800
G1 Z0.570 F1002
G1 X137.445 Y137.730 F4800
G1 Z0.270 F1002
G1 E0.0000 F1800
G92 E0.0000
G1 X137.740 Y137.435 E0.0202 F780
G1 X138.365 Y136.924 E0.0594
G1 X138.709 Y136.695 E0.0794
G1 X139.382 Y136.334 E0.1164
G1 X139.700 Y136.196 E0.1332
G1 X140.287 Y135.996 E0.1633
G1 X140.630 Y135.911 E0.1805
G1 X141.360 Y135.792 E0.2164
G1 X141.701 Y135.764 E0.2330
G1 X161.756 Y135.760 E1.2054
G1 X164.240 Y138.243 E1.3758
G1 X164.240 Y151.757 E2.0311
G1 X161.753 Y154.242 E2.2016
G1 X141.457 Y154.223 E3.1858
G1 X140.907 Y154.150 E3.2127
G1 X139.933 Y153.888 E3.2616
G1 X139.543 Y153.741 E3.2819
G1 X138.936 Y153.441 E3.3147
G1 X138.585 Y153.223 E3.3347
G1 X137.820 Y152.638 E3.3814
G1 X137.471 Y152.300 E3.4050
G1 X136.949 Y151.667 E3.4448
G1 X136.748 Y151.376 E3.4619
G1 X136.461 Y150.877 E3.4898
G1 X136.341 Y150.632 E3.5031
G1 X136.125 Y150.112 E3.5304
G1 X136.019 Y149.782 E3.5472
G1 X135.848 Y149.051 E3.5836
G1 X135.797 Y148.705 E3.6006
G1 X135.764 Y148.204 E3.6249
G1 X135.760 Y148.066 E3.6316
G1 X135.764 Y141.693 E3.9406
G1 X135.793 Y141.348 E3.9574
G1 X135.919 Y140.586 E3.9949
G1 X136.026 Y140.187 E4.0149
G1 X136.294 Y139.472 E4.0519
G1 X136.441 Y139.160 E4.0687
G1 X136.750 Y138.622 E4.0988
G1 X136.951 Y138.331 E4.1159
G1 X137.445 Y137.730 E4.1536
G92 E0.0000
G1 E-0.5000 F1800
; feature inner perimeter
G1 Z0.570 F1002
G1 X141.098 Y141.096 F4800
G1 Z0.270 F1002
G1 E0.0000 F1800
G92 E0.0000
G1 X141.293 Y140.937 E0.0122 F683
G1 X141.517 Y140.817 E0.0245
G1 X141.661 Y140.768 E0.0319
G1 X141.932 Y140.724 E0.0452
G1 X159.280 Y140.720 E0.8865
G1 X159.280 Y149.280 E1.3016
G1 X142.024 Y149.280 E2.1384
G1 X141.833 Y149.267 E2.1477
G1 X141.669 Y149.235 E2.1558
G1 X141.510 Y149.181 E2.1639
G1 X141.360 Y149.107 E2.1720
G1 X141.220 Y149.013 E2.1802
G1 X141.109 Y148.916 E2.1873
G1 X140.930 Y148.698 E2.2010
G1 X140.852 Y148.563 E2.2086
G1 X140.796 Y148.427 E2.2157
G1 X140.731 Y148.151 E2.2294
G1 X140.720 Y147.977 E2.2379
G1 X140.724 Y141.928 E2.5312
G1 X140.767 Y141.669 E2.5440
G1 X140.857 Y141.430 E2.5563
G1 X140.932 Y141.298 E2.5637
G1 X141.098 Y141.096 E2.5764
; feature outer perimeter
G1 X140.758 Y140.755 F4800
G92 E0.0000
G1 X141.025 Y140.536 E0.0168 F585
G1 X141.325 Y140.375 E0.0333
G1 X141.544 Y140.301 E0.0445
G1 X141.893 Y140.244 E0.0616
G1 X159.760 Y140.240 E0.9280
G1 X159.760 Y149.760 E1.3897
G1 X142.008 Y149.760 E2.2506
G1 X141.770 Y149.744 E2.2621
G1 X141.544 Y149.699 E2.2733
G1 X141.326 Y149.625 E2.2845
G1 X141.119 Y149.523 E2.2956
G1 X140.927 Y149.395 E2.3068
G1 X140.764 Y149.251 E2.3174
G1 X140.534 Y148.972 E2.3350
G1 X140.421 Y148.775 E2.3459
G1 X140.337 Y148.574 E2.3565
G1 X140.255 Y148.222 E2.3741
G1 X140.240 Y147.992 E2.3852
G1 X140.244 Y141.889 E2.6812
G1 X140.301 Y141.544 E2.6981
G1 X140.421 Y141.225 E2.7146
G1 X140.536 Y141.024 E2.7259
G1 X140.758 Y140.755 E2.7428
; feature inner perimeter
G1 X142.731 Y143.174 F4800
G92 E0.0000
G1 X142.363 Y143.496 E0.0237 F683
G1 X142.135 Y143.790 E0.0417
G1 X141.909 Y144.239 E0.0661
G1 X141.793 Y144.730 E0.0906
G1 X141.780 Y145.113 E0.1092
G1 X141.857 Y145.597 E0.1330
G1 X142.047 Y146.062 E0.1573
G1 X142.251 Y146.373 E0.1753
G1 X142.603 Y146.732 E0.1997
G1 X143.028 Y147.000 E0.2241
G1 X143.363 Y147.129 E0.2415
G1 X143.713 Y147.205 E0.2588
G1 X144.201 Y147.214 E0.2825
G1 X144.568 Y147.149 E0.3006
G1 X145.037 Y146.969 E0.3250
G1 X145.451 Y146.684 E0.3493
G1 X145.702 Y146.428 E0.3667
G1 X145.911 Y146.137 E0.3841
G1 X146.119 Y145.679 E0.4085
G1 X146.215 Y145.186 E0.4328
G1 X146.215 Y144.814 E0.4509
G1 X146.121 Y144.335 E0.4746
G1 X145.980 Y143.990 E0.4926
G1 X145.712 Y143.582 E0.5163
G1 X145.451 Y143.316 E0.5344
G1 X145.049 Y143.039 E0.5581
G1 X144.719 Y142.898 E0.5754
G1 X144.372 Y142.808 E0.5928
G1 X143.885 Y142.780 E0.6165
G1 X143.516 Y142.830 E0.6346
G1 X143.054 Y142.988 E0.6583
G1 X142.731 Y143.174 E0.6763
; feature outer perimeter
G1 X143.011 Y143.567 F4800
G92 E0.0000
G1 X142.714 Y143.827 E0.0192 F585
G1 X142.543 Y144.047 E0.0327
G1 X142.363 Y144.404 E0.0521
G1 X142.271 Y144.794 E0.0715
G1 X142.261 Y145.084 E0.0855
G1 X142.322 Y145.467 E0.1044
G1 X142.473 Y145.837 E0.1238
G1 X142.627 Y146.070 E0.1373
G1 X142.907 Y146.356 E0.1567
G1 X143.245 Y146.569 E0.1761
G1 X143.501 Y146.668 E0.1894
G1 X143.769 Y146.726 E0.2027
G1 X144.164 Y146.733 E0.2218
G1 X144.439 Y146.685 E0.2354
G1 X144.812 Y146.541 E0.2547
G1 X145.141 Y146.315 E0.2741
G1 X145.333 Y146.119 E0.2874
G1 X145.493 Y145.896 E0.3007
G1 X145.658 Y145.532 E0.3201
G1 X145.735 Y145.140 E0.3395
G1 X145.735 Y144.860 E0.3530
G1 X145.659 Y144.473 E0.3722
G1 X145.554 Y144.214 E0.3857
G1 X145.337 Y143.884 E0.4049
G1 X145.141 Y143.685 E0.4184
G1 X144.816 Y143.462 E0.4376
G1 X144.564 Y143.353 E0.4509
G1 X144.298 Y143.285 E0.4642
G1 X143.903 Y143.262 E0.4834
G1 X143.627 Y143.299 E0.4969
G1 X143.253 Y143.427 E0.5160
G1 X143.011 Y143.567 E0.5296
G92 E0.0000
G1 E-0.5000 F1800
; feature solid layer
G1 Z0.570 F1002
G1 X146.455 Y144.850 F4800
G1 Z0.270 F1002
G1 E0.0000 F1800
G92 E0.0000
G1 X150.646 Y149.040 E0.2874 F780
G1 X149.967 Y149.040 E0.3203
G1 X146.403 Y145.476 E0.5647
G1 X146.349 Y145.753 E0.5784
G1 X146.240 Y145.992 E0.5911
G1 X149.288 Y149.040 E0.8002
G1 X148.609 Y149.040 E0.8331
G1 X145.998 Y146.428 E1.0122
G1 X145.887 Y146.583 E1.0214
G1 X145.682 Y146.792 E1.0356
G1 X147.931 Y149.040 E1.1898
G1 X147.252 Y149.040 E1.2227
G1 X145.295 Y147.083 E1.3569
G1 X145.150 Y147.182 E1.3655
G1 X144.836 Y147.303 E1.3818
G1 X146.573 Y149.040 E1.5009
G1 X145.894 Y149.040 E1.5338
G1 X144.295 Y147.441 E1.6434
G1 X140.992 Y148.210 F4800
G92 E0.0000
G1 X141.797 Y149.016 E0.0552 F780
G1 X141.864 Y149.029 E0.0586
G1 X142.031 Y149.040 E0.0667
G1 X142.500 Y149.040 E0.0894
G1 X140.960 Y147.500 E0.1950
G1 X140.961 Y146.822 E0.2279
G1 X143.179 Y149.040 E0.3800
G1 X143.858 Y149.040 E0.4129
G1 X140.961 Y146.144 E0.6116
G1 X140.962 Y145.465 E0.6444
G1 X144.536 Y149.040 E0.8896
G1 X145.215 Y149.040 E0.9225
G1 X143.601 Y147.426 E1.0332
G1 X143.294 Y147.359 E1.0485
G1 X142.920 Y147.215 E1.0679
G1 X142.451 Y146.920 E1.0948
G1 X142.064 Y146.524 E1.1216
G1 X141.833 Y146.174 E1.1419
G1 X141.624 Y145.663 E1.1687
G1 X141.584 Y145.409 E1.1812
G1 X140.962 Y144.787 E1.2238
G1 X140.963 Y144.109 E1.2567
G1 X141.554 Y144.700 E1.2973
G1 X141.682 Y144.156 E1.3244
G1 X141.685 Y144.152 E1.3246
G1 X140.963 Y143.430 E1.3741
G1 X140.964 Y142.752 E1.4070
G1 X141.912 Y143.700 E1.4720
G1 X141.931 Y143.661 E1.4741
G1 X142.188 Y143.330 E1.4944
G1 X142.205 Y143.315 E1.4955
G1 X140.964 Y142.074 E1.5806
G1 X140.964 Y141.948 E1.5867
G1 X141.000 Y141.731 E1.5974
G1 X141.074 Y141.533 E1.6077
G1 X141.085 Y141.515 E1.6087
G1 X142.568 Y142.998 E1.7104
G1 X142.591 Y142.978 E1.7118
G1 X142.954 Y142.769 E1.7322
G1 X143.001 Y142.753 E1.7346
G1 X141.404 Y141.156 E1.8441
G1 X141.427 Y141.138 E1.8455
G1 X141.613 Y141.038 E1.8557
G1 X141.719 Y141.002 E1.8612
G1 X141.900 Y140.972 E1.8700
G1 X143.515 Y142.588 E1.9808
G1 X143.875 Y142.539 E1.9984
G1 X144.161 Y142.555 E2.0123
G1 X142.570 Y140.964 E2.1215
G1 X143.248 Y140.964 E2.1544
G1 X145.074 Y142.789 E2.2796
G1 X145.165 Y142.828 E2.2844
G1 X145.606 Y143.131 E2.3103
G1 X145.900 Y143.430 E2.3307
G1 X146.194 Y143.877 E2.3566
G1 X146.216 Y143.931 E2.3594
G1 X151.325 Y149.040 E2.7098
G1 X152.004 Y149.040 E2.7427
G1 X143.927 Y140.964 E3.2966
G1 X144.606 Y140.963 E3.3295
G1 X152.682 Y149.040 E3.8834
G1 X153.361 Y149.040 E3.9163
G1 X145.284 Y140.963 E4.4702
G1 X145.963 Y140.963 E4.5031
G1 X154.040 Y149.040 E5.0570
G1 X154.719 Y149.040 E5.0899
G1 X146.642 Y140.963 E5.6439
G1 X147.321 Y140.963 E5.6768
G1 X155.398 Y149.040 E6.2307
G1 X156.076 Y149.040 E6.2636
G1 X147.999 Y140.963 E6.8176
G1 X148.678 Y140.963 E6.8505
